!!!!SEGMENT: pl-kozmzk--mzk-m-159--048_walczynski-franciszek--praeludia-organi-op-5-allegretto.krn
!!!cenid: 18xx:2791
!!!COM: Walczyński, Franciszek
!!!COM-rismid: pe30021989
!!!CDT: ~1852-1937
!!!CNT: Polish
!!!GTL: Praeludia organi op. 5
!!!OTL: 48. Allegretto
!!!PDT: 1894
!!!AGN: Secular; Prelude
!!!SMS-siglum: PL-KOZmzk
!!!SMS-shelfmark: mzk/m/159
!!!SMS-shelfwork: 048 G
!!!SMS-variant:
!!!SMS-altvar:
!!!NIFC-rismid: 1001118863
!!!URL-scan: https://repozytorium.nifc.pl/islandora/object/pl-kozmzk%3A2265/datastream/PDF/view
!!!ONB-nifc: UWAGA: numeracja plików zgodna z numeracją źrodłową
!!!OMD: 48. Allegretto.
!!!AIN: 1 empty 1 organ
!!!key:
**kern	**kern	**dynam
*part2	*part1	*part1
*staff2	*staff1	*
*Iorgan	*Iempty	*
*I"[Organo]	*	*
*clefF4	*clefG2	*
*k[b-e-a-d-]	*k[b-e-a-d-]	*
*f:	*f:	*
*M2/4	*M2/4	*
=1	=1	=1
*^	*^	*
2r	2r	2r	(4a-\	p
.	.	.	4g\	.
=2	=2	=2	=2	=2
2r	2r	2r	4f\	.
.	.	.	4g\	.
=3	=3	=3	=3	=3
8r	2r	2r	2en\)	.
(8d-/L	.	.	.	.
8c/	.	.	.	.
8B-/J)	.	.	.	.
=4	=4	=4	=4	=4
!	!	!LO:TX:t=P:problem=pf się nie wyświetla	!	!LO:DY:a
(4A-/	2r	(4cc/	4.f\	pf
4G/	.	4b-/	.	.
.	.	.	8en\	.
=5	=5	=5	=5	=5
4F/	2r	4a-/	([2f\	.
4D-/	.	4b-/	.	.
=6	=6	=6	=6	=6
4C/	2r	2g/)	8f\L]	.
.	.	.	16en\L	.
.	.	.	16dn\JJ	.
4c/)	.	.	4e\)	.
=7	=7	=7	=7	=7
!LO:TX:b:i:t=Ped.	!	!	!	!
2c/	(4F\	(4a-/	([2f\	f
.	4E-X\	4an/	.	.
=8	=8	=8	=8	=8
4B-/	2D-\	4b-/	2f\_	.
[4A-/	.	4bn/	.	.
=9	=9	=9	=9	=9
8A-/L]	2C;\)	2cc;/)	8f\L]	.
16G/L	.	.	16en\L	.
16F/JJ	.	.	16dn\JJ	.
4G/	.	.	4e\)	.
=10	=10	=10	=10	=10
2r	2r	(4aa-/	2r	p
.	.	4gg/	.	.
!!LO:LB:g=original
=11	=11	=11	=11	=11
2rBB	2rF	4ff/	2r	.
.	.	4gg/	.	.
=12	=12	=12	=12	=12
2rBB	2rF	2een/)	8r	.
.	.	.	(8dd-\L	.
.	.	.	8cc\	.
.	.	.	8b-\J)	.
=13	=13	=13	=13	=13
!	!	!	!	!LO:DY:a
(4a-/	2rBB	(4ff/	4cc\	p
4g/	.	4ee-/	4b-\	.
=14	=14	=14	=14	=14
4f/	2rBB	4dd-/	4a-\	.
4g/	.	4ee-/	4b-\	.
=15	=15	=15	=15	=15
!LO:TX:b:i:t=Ped.	!	!	!	!
2en/)	8r	2cc/)	2g\	.
.	(8D-X\L	.	.	.
.	8C\	.	.	.
.	8BB-\J)	.	.	.
=16	=16	=16	=16	=16
([2c/	(4AA-\	(4cc/	4.f\	p
.	4GG\	4b-/	.	.
.	.	.	8en\	.
=17	=17	=17	=17	=17
4c/]	4FF\	4a-/	4.f\	.
4B-/)	8GG\L	8b-/L	.	.
.	8C\J)	8g/J	8en\	.
=18	=18	=18	=18	=18
(4A-/	(4F\	2f/)	2f\	.
4An/	4E-X\	.	.	.
=19	=19	=19	=19	=19
!	!	!	!	!LO:DY:a
2B-/)	2D-X\	(4f/	2f\	p
.	.	4g/	.	.
=20	=20	=20	=20	=20
!	!	!	!	!LO:HP:a
(4.c/	2C\)	4.a-/	4f\	<
.	.	.	4en\	.
[8B-/	.	8g/	.	[[
=21	=21	=21	=21	=21
!	!	!	!	!LO:HP:a
4B-/]	[2FF\	[2f/	[2c\	pp >
8A-/L	.	.	.	.
8G/J	.	.	.	.
=22	=22	=22	=22	=22
2A-/)	2FF;\]	2f;/])	2c\]	]
*v	*v	*	*	*
*	*v	*v	*
==	==	==
*-	*-	*-
!!!system-decoration: {(s1,s2)}
!!!EED: Andrzej Borzym
!!!EEV: 2021-08-08
!!!ENC: Krzysztof Stępień
!!!END: 2021-07-26
